X:1720
L:1/8
M:3/4
K:Gdor
 d2 | g2 gfga | ^f2 d2 de/f/ | b=fgbag | g2 f2 de/f/ | gfgbag | ^fg d2 gf | dcBAG^F | G4 :: Ac | 
 dfdcAG | d2 G2 A>c | dfdcAG | d2 G2 A/B/c/d/ | fdfdcd | f2 A2 cd | fgf dcA | f2 A2 cd | fgfdcA | 
 f4 de/f/ | g2 gfga | b2 agfe | dcBAGF | G4 :|

